outputs/icons/audio_video/replay_round.svg

<svg xmlns="http://www.w3.org/2000/svg" width="1200" height="1200" fill="none"><g clip-path="url(#a)"><path fill="#000" d="M600 250.001V110.502c0-22.501-27-33.5-42.5-17.5l-189.998 189.5c-10 10-10 25.5 0 35.5L557 507.5c16 15.5 43 4.5 43-17.999v-139.5c186.5 0 334 170.999 293 364.499C869.5 828 777.5 919.5 664.5 943c-178.499 37.5-337.499-85-361.498-250.5-3.5-24-24.5-42.5-49.001-42.5-29.999 0-54 26.5-50 56.5 31 219.5 240 382 476.499 336 156-30.5 281.5-156 312-312C1042 474.001 847 250.001 600 250.001"/></g><defs><clipPath id="a"><path fill="#fff" d="M0 0h1200v1200H0z"/></clipPath></defs></svg>

<svg width="1200" height="1200" viewBox="0 0 1200 1200" fill="none" xmlns="http://www.w3.org/2000/svg"><g clip-path="url(#clip0_231_5128)"><path d="M600 250.001V110.502C600 88.001 573 77.002 557.5 93.002L367.502 282.502C357.502 292.502 357.502 308.002 367.502 318.002L557 507.5C573 523 600 512 600 489.501V350.001C786.5 350.001 934 521 893 714.5C869.5 828 777.5 919.5 664.5 943C486.001 980.5 327.001 858 303.002 692.5C299.502 668.5 278.502 650 254.001 650C224.002 650 200.001 676.5 204.001 706.5C235.001 926 444.001 1088.5 680.5 1042.5C836.5 1012 962 886.5 992.5 730.5C1042 474.001 847 250.001 600 250.001Z" fill="#1D1E23"/></g><defs><clipPath id="clip0_231_5128"><path width="24" fill="white" d="M0 0H1200V1200H0V0z"/></clipPath></defs></svg>
